X: 50
T:Jove Malaj Mome
M:18/8
L:1/8
Q:250
C:Trad (Bulgarian)
S:lost in the mists of the past...
N:The meter is actually:32222322/8, or you can thunk of it as 7/8
N: 11/8 (in one measure)
K:Am
|: "Am"d3A4 cde2d/c/d2cBA2 | c/B/ c2A4B2"G"G2"Am"A2GABc \
| cB2A4"G"B2G2"Am"A2G ABc2 | cB2A4"G"B2G2"Am Fine"A3A2z2 :|
K:Em
|: "Em"A3E4 A{G}A BA ~B2A GFED | G3E4"D"F2D2"Em"E2D EFGA \
| G3E4"D"F2D2"Em"E2D GFED | G3E4"D"F2D2"Em"E3E2z2 :|
